X:358
T:B358-  Only Tell Her
Q:1/4=120
L:1/4
M:C|
K:Gm
d3/2d/ c/d/ e/d/|c3/2B/AG|d3/2d/ c/d/ e/d/|c/B/ A/G/G2:|\
f3/2f/fe/d/|e3/4f/4 e/d/cB|d3/2d/gf/=e/|e3/2d/d2|\
d3/2d/ c/d/ e/d/|c3/2B/AG|d3/2d/ c/d/ e/d/|c/B/ A/G/ G2|]

